X: 8312
T: Corriegills
R: strathspey
M: 4/4
K: Amajor
E<E E>F E>F A>B|c>A d>c B>A F<A|E<E E>F E>F A>B|c<A d>c B2 A2:|
d/|c<e e>f a>g f>e|f>e c>A F<A E>d|c<e e>f a>g f>e|c<A d>c B2 A>d|
c<e e>f a>g f>e|f>e c>A F<A E2|E<E E>F E>F A>B|c<A d>c B2 A2||

